X:1
T:Rimsky-Korsakov Harmonic Exercises 33,
T:Free Melodic Figuration (3)
T:Rimsky-Korsakov Harmonic Exercises 33, Free Melodic Figuration (3) 
T:"Practical Manual of Harmony" (1885)
T:Realizations by S. Shchetnikov
T:R-K's remark: the appropriate use of these gestures is a significant challenge for students.
%%score { ( 1 2 ) | ( 3 4 ) }
L:1/8
Q:1/4=80
M:3/4
K:C
V:1 treble nm="Piano" snm="Pno."
V:2 treble 
V:3 bass 
V:4 bass 
V:1
"^Jumps from a dissonant tone. Usually these jumps are explained skipping one or more passing tones \nor the possibility of this tone being present in a subsequent chord (a type of anticipating tone).\n""^Examples by Rimsky-Korsakov:" (cBGA !breath!B2) |] %1
[M:2/4] (feB!breath!c) |][M:3/4] (d3 e !breath!c2) |] (ef de !breath!c2) |] (cdAB d!breath!c) |] %5
 (GAEA !breath!G2) |] (BcAB !breath!c2) |][M:6/4] (G2 G2 A2 e2 d2 !breath!c2) |][M:3/4] (G4 d2- | %9
 dG ^FG A!breath!G) |][M:4/4]""[Q:1/4=70]"^Example by Rimsky-Korsakov:""_C:" (GAE^F"" AG""d=e | %11
"" Bcdc"" fe""Bc |"" de""BA"" ^FGc=f | %13
""[Q:1/4=70] ^c[Q:1/4=66]"^.3"d[Q:1/4=62]"^.5"e[Q:1/4=58]"^.8"B""[Q:1/4=55] !breath!=c4) |] %14
[K:Bb][M:2/4][Q:1/4=90]"^Exercise 33.1" F2 B2 | Ae dc | B2 c2 | A2 F2 | c2 de | fg ec | B2 c2 | %21
 d4 | F2 B2 | Ae dc | B2 c2 | A2 d2 | dc de | fg ec | B2 A2 | B4 |] %30
"""^Realization 33.1""_B♭:" (F2"" B2 |"" Ae"" dc |"" B2 c2 |"" A2"" F2 |"" c2 de |"" fg"" e""c | %36
"" B2"" c2 |"" d4) |"""_B♭:" (F2"" B2 |"""_B♭:""_g:""_{" Ae dc | B2 c2 | A2 d2 | %42
 dc"""_g:""_B♭:""_{" d""e |"" fg""[Q:1/4=90] e""[Q:1/4=85]"^.5"c | %44
""[Q:1/4=81] B2""""[Q:1/4=72] A2[Q:1/4=67] |""[Q:1/4=63] B4) |] %46
V:2
 (E2 C2 F2) |][M:2/4] (A2 G2) |][M:3/4] (G2 F2 E2) |] G6 |] (E2 G4) |] (C4 D2) |] (G2 F2 E2) |] %7
[M:6/4] (G2- G6- G4) |][M:3/4] (G4 F2 | E6) |][M:4/4] (C2 E_E D2 =F2 | E4 F2 E2 | A2 D2 E3 G | %13
 =F4 E4) |][K:Bb][M:2/4] x4 | x4 | x4 | x4 | x4 | x4 | x4 | x4 | x4 | x4 | x4 | x4 | x4 | x4 | x4 | %29
 x4 |] (D2 F2 | F4 | F4 | F2 C2 | G4 | B2 G2 | F4 | F4) | (D4 |"" C2"" E2 |"" D4 |"" D=E"" ^F2 | %42
"""" G4 | F2 G2 | F3"^.5" E | D4) |] %46
V:3
 G,6 |][M:2/4] C4 |][M:3/4] (B,4 C2) |] (C2 B,2 C2) |] G,6 |] (E,2 G,4) |] (D4 C2) |] %7
[M:6/4] (C2 B,6- B,2 C2) |][M:3/4] (B,4 G,2 | G,4 C2) |][M:4/4] (E,2 G,A, D,2 G,2 | G,4 C4 | %12
 A,2 C2 C4 | B,2 G,2 G,4) |][K:Bb][M:2/4] B,,4 | F,2 E,2 | D,4 | F,4 | E,4 | D,2 E,2 | F,4 | B,,4 | %22
 B,,2 D,2 | F,2 ^F,2 | G,4 | D,4 | G,3 E, | D,2 E,2 | F,4 | B,,4 |] (B,2 D2 | C2 A,2 | B,4 | %33
 C2 A,2 | C4 | B,3 C | D2 A,2 | B,4) | (F,4 | F,2 A,2 | G,4 | ^F,G, A,2 | B,4 | B,4 | D2 C2 | %45
 B,4) |] %46
V:4
 (C,2 E,2 D,2) |][M:2/4] (F,2 E,2) |][M:3/4] (G,,4 C,2) |] (C,2 F,2 E,2) |] (C,2 F,2 E,2) |] %5
 (C,4 B,,2) |] (G,4 C,2) |][M:6/4] (E,2 F,6 E,4) |][M:3/4] (G,4 B,,2 | C,6) |][M:4/4] (C,4 B,,4 | %11
 C,2 B,,2 A,,2 G,,2 | F,,2 ^F,,2 G,,4 | G,,4 C,4) |][K:Bb][M:2/4] x4 | x4 | x4 | x4 | x4 | x4 | %20
 x4 | x4 | x4 | x4 | x4 | x4 | x4 | x4 | x4 | x4 |] (B,,4 | F,2 E,2 | D,4 | F,4 | E,4 | D,2 E,2 | %36
 F,4 | B,,4) | (B,,2 D,2 | F,2 ^F,2 | G,4 | D,4 | G,3 E, | D,2 E,2 | F,4 | B,,4) |] %46

